src/themes/standard/img/vs.min.svg

<svg xmlns="http://www.w3.org/2000/svg" width="16" height="16"><style type="text/css">.icon-canvas-transparent{opacity:0;fill:#F6F6F6;}.icon-vs-out{fill:#F6F6F6;}.icon-visualstudio{fill:#68217A;}</style><path d="M16 16H0V0h16v16z" class="icon-canvas-transparent"/><path d="M5.97 10.83L3.14 13.2 0 11.6V4.38L3.14 2.8l2.83 2.37L11.77 0 16 1.3v13.44L11.76 16l-5.8-5.17z" class="icon-vs-out"/><path d="M12 1L6 6.5 3 4 1 5v6l2 1 3-2.5 6 5.5 3-1V2l-3-1zm-9 9V6l2 2-2 2zm5-2l4-3v6L8 8z" class="icon-visualstudio"/></svg>

<svg viewBox="0 0 16 16" x="0" y="0" width="16" height="16" version="1.1" xmlns="http://www.w3.org/2000/svg" xml:space="preserve"><style type="text/css">.icon-canvas-transparent{opacity:0;fill:#F6F6F6;}.icon-vs-out{fill:#F6F6F6;}.icon-visualstudio{fill:#68217A;}</style><path class="icon-canvas-transparent" d="M16 16H0V0h16V16Z"/><path class="icon-vs-out" d="M5.97 10.83l-2.83 2.36L0 11.62V4.38l3.14-1.57 2.83 2.36 5.79-5.16L16 1.3v13.44l-4.24 1.26L5.97 10.83Z"/><path class="icon-visualstudio" d="M12 1L6 6.5 3 4 1 5v6l2 1 3-2.5 6 5.5 3-1V2L12 1ZM3 10V6l2 2L3 10ZM8 8l4-3v6L8 8Z"/></svg>
